images/icon/youtube.svg

<svg width="46" height="33" viewBox="0 0 46 33" fill="none" xmlns="http://www.w3.org/2000/svg">
<path d="M43.2776 6.27359C43.0318 5.39478 42.5632 4.59433 41.9172 3.94976C41.2713 3.30519 40.4698 2.83833 39.5905 2.59438C36.2897 1.71196 23.0202 1.71196 23.0202 1.71196C23.0202 1.71196 9.77584 1.69079 6.44061 2.59438C5.56268 2.8394 4.7628 3.30675 4.11828 3.95126C3.47377 4.59578 3.00642 5.39566 2.7614 6.27359C2.13458 9.65277 1.82585 13.0833 1.83929 16.5201C1.83317 19.9403 2.14184 23.3539 2.7614 26.7176C3.00721 27.596 3.4747 28.3965 4.11899 29.0421C4.76328 29.6878 5.56274 30.157 6.44061 30.4047C9.74144 31.2872 23.0202 31.2872 23.0202 31.2872C23.0202 31.2872 36.2566 31.2872 39.5905 30.4047C40.4698 30.1581 41.2708 29.6894 41.9165 29.0436C42.5623 28.3979 43.031 27.5969 43.2776 26.7176C43.8849 23.3559 44.1812 19.9373 44.1601 16.5201C44.1812 13.0803 43.8915 9.65645 43.2776 6.27359Z" stroke="white" stroke-width="1.83397" stroke-miterlimit="22.9256" stroke-linecap="round" stroke-linejoin="round"/>
<path d="M18.7812 10.1592V22.8532L29.8268 16.5201L18.7812 10.1592Z" stroke="white" stroke-width="1.83397" stroke-miterlimit="22.9256" stroke-linecap="round" stroke-linejoin="round"/>
</svg>

<svg width="46" height="33" fill="none" xmlns="http://www.w3.org/2000/svg"><path d="M43.278 6.274a5.3 5.3 0 00-3.688-3.68c-3.3-.882-16.57-.882-16.57-.882s-13.244-.021-16.58.882a5.299 5.299 0 00-3.679 3.68A55.002 55.002 0 001.84 16.52c-.006 3.42.303 6.834.922 10.198a5.32 5.32 0 003.68 3.687c3.3.882 16.58.882 16.58.882s13.236 0 16.57-.882a5.32 5.32 0 003.687-3.687c.607-3.362.903-6.78.882-10.198a55.42 55.42 0 00-.882-10.246z" stroke="#fff" stroke-width="1.834" stroke-miterlimit="22.926" stroke-linecap="round" stroke-linejoin="round"/><path d="M18.781 10.16v12.693l11.046-6.333-11.046-6.36z" stroke="#fff" stroke-width="1.834" stroke-miterlimit="22.926" stroke-linecap="round" stroke-linejoin="round"/></svg>
